public/images/icons/aura.svg

<svg width="84" height="48" viewBox="0 0 84 48" fill="none" xmlns="http://www.w3.org/2000/svg">
<path d="M70.6562 20.1082C69.932 19.9533 69.1773 19.8039 68.3939 19.6608C68.1704 17.8588 67.7793 16.1114 67.2372 14.4362C77.4174 16.0746 84 18.6795 84 21.6132C84 21.646 83.9991 21.6786 83.9976 21.7114C83.7548 26.6252 65.0449 30.5924 42 30.5924C18.804 30.5924 0 26.5729 0 21.6145C0 21.5841 0.000699752 21.5534 0.00212163 21.523C0.136981 18.5922 6.84221 15.9972 17.1203 14.3793C16.5749 16.0525 16.1803 17.7977 15.9528 19.598C15.045 19.7603 14.1746 19.9305 13.3438 20.1082C12.2555 20.3407 11.2595 20.5811 10.356 20.8248V20.8261C9.39222 21.0862 8.53367 21.3504 7.78041 21.6138C9.23976 22.1242 11.0944 22.6376 13.3438 23.1184C14.1059 23.2813 14.9013 23.438 15.7284 23.588V23.5893C22.6789 24.8504 31.8515 25.639 42 25.639C52.3145 25.639 61.6212 24.8244 68.6114 23.527V23.5257C69.3171 23.3947 69.9991 23.2588 70.6562 23.1184C72.9065 22.6373 74.7617 22.1237 76.2215 21.6132C74.7617 21.1028 72.9065 20.5892 70.6562 20.1082Z" fill="url(#paint0_linear_56_75)"/>
<path d="M73.6422 6.12784C73.6433 6.10465 73.6437 6.08125 73.6437 6.05784C73.6437 3.41053 66.6129 1.11759 56.359 0C58.7994 1.61722 60.9674 3.63956 62.776 5.97581C62.9088 6.00294 63.0405 6.03028 63.1709 6.05784C63.0761 6.07775 62.9808 6.09765 62.8847 6.11734L62.8856 6.11844C57.6612 7.19272 50.3711 7.889 42.1916 7.889C33.9922 7.889 26.6864 7.18922 21.4594 6.11056L21.4603 6.10947C21.3771 6.0924 21.2947 6.07512 21.2126 6.05784C21.3257 6.03378 21.4397 6.01016 21.5548 5.98675C23.3627 3.64875 25.5308 1.62466 27.9711 0.00568688C17.7461 1.12547 10.7398 3.41512 10.7398 6.05784C10.7398 9.36469 25.967 11.9941 36.2303 12.7207C38.5267 12.8833 42.1227 12.8947 42.1227 12.8947C43.3919 12.9498 45.7037 12.885 47.9909 12.7273C58.31 12.0157 73.4906 9.41631 73.6422 6.12784Z" fill="url(#paint1_linear_56_75)"/>
<path d="M10.7398 40.3732C10.7398 38.6437 13.741 37.0654 18.6815 35.8671C19.4699 37.448 20.4013 38.939 21.4579 40.322C21.3756 40.339 21.294 40.3561 21.2126 40.3732C21.3246 40.3968 21.4375 40.4204 21.5515 40.4436C21.5589 40.4532 21.5664 40.4628 21.5738 40.4725H21.6865C26.8971 41.5246 34.1104 42.2045 42.1916 42.2045C50.2731 42.2045 57.4864 41.5246 62.697 40.4725H62.7653C62.7699 40.4666 62.7745 40.4604 62.7791 40.4545C62.911 40.4276 63.0416 40.4005 63.1709 40.3732C63.077 40.3535 62.9823 40.3336 62.8871 40.3141C63.9435 38.9307 64.8745 37.4388 65.6622 35.8575C70.6265 37.0569 73.6437 38.6391 73.6437 40.3732C73.6437 40.4064 73.6426 40.4394 73.6404 40.4725C73.3978 44.1735 59.4105 47.1579 42.1916 47.1579C24.9727 47.1579 10.9857 44.1735 10.7429 40.4725C10.7407 40.4394 10.7398 40.4064 10.7398 40.3732Z" fill="url(#paint2_linear_56_75)"/>
<defs>
<linearGradient id="paint0_linear_56_75" x1="2.50172e-06" y1="23.5789" x2="46.871" y2="-18.1376" gradientUnits="userSpaceOnUse">
<stop stop-color="#FFE7E0"/>
<stop offset="0.109375" stop-color="#F8DBF4"/>
<stop offset="0.526042" stop-color="#C4DDFF"/>
<stop offset="1" stop-color="#CAE9FF"/>
</linearGradient>
<linearGradient id="paint1_linear_56_75" x1="2.50172e-06" y1="23.5789" x2="46.871" y2="-18.1376" gradientUnits="userSpaceOnUse">
<stop stop-color="#FFE7E0"/>
<stop offset="0.109375" stop-color="#F8DBF4"/>
<stop offset="0.526042" stop-color="#C4DDFF"/>
<stop offset="1" stop-color="#CAE9FF"/>
</linearGradient>
<linearGradient id="paint2_linear_56_75" x1="2.50172e-06" y1="23.5789" x2="46.871" y2="-18.1376" gradientUnits="userSpaceOnUse">
<stop stop-color="#FFE7E0"/>
<stop offset="0.109375" stop-color="#F8DBF4"/>
<stop offset="0.526042" stop-color="#C4DDFF"/>
<stop offset="1" stop-color="#CAE9FF"/>
</linearGradient>
</defs>
</svg>

<svg viewBox="0 0 84 48" fill="none" xmlns="http://www.w3.org/2000/svg"><path d="M70.656 20.108a76.85 76.85 0 0 0-2.262-.447 28.261 28.261 0 0 0-1.157-5.225C77.417 16.075 84 18.68 84 21.613c0 .033 0 .066-.002.098-.243 4.914-18.953 8.881-41.998 8.881-23.196 0-42-4.02-42-8.977 0-.03 0-.062.002-.092.135-2.93 6.84-5.526 17.118-7.144a28.266 28.266 0 0 0-1.167 5.219c-.908.162-1.778.332-2.61.51a58.185 58.185 0 0 0-2.987.717v.001c-.964.26-1.822.524-2.576.788 1.46.51 3.314 1.024 5.564 1.504.762.163 1.557.32 2.384.47v.001c6.95 1.261 16.123 2.05 26.272 2.05 10.315 0 19.621-.815 26.611-2.112v-.001a77.417 77.417 0 0 0 2.045-.408c2.25-.48 4.106-.994 5.566-1.505-1.46-.51-3.316-1.024-5.566-1.505Z" fill="url(#a)"/><path d="M73.642 6.128a1.48 1.48 0 0 0 .002-.07c0-2.647-7.031-4.94-17.285-6.058a26.967 26.967 0 0 1 6.417 5.976l.395.082-.286.06C57.662 7.193 50.372 7.89 42.193 7.89c-8.2 0-15.506-.7-20.733-1.778l.001-.002a49.624 49.624 0 0 1-.247-.051l.342-.071A26.974 26.974 0 0 1 27.97.006C17.746 1.126 10.74 3.416 10.74 6.058c0 3.307 15.227 5.936 25.49 6.663 2.297.162 5.893.174 5.893.174 1.269.055 3.58-.01 5.868-.168 10.319-.711 25.5-3.31 25.651-6.6Z" fill="url(#b)"/><path d="M10.74 40.373c0-1.73 3.001-3.308 7.941-4.506a27.703 27.703 0 0 0 2.777 4.455l-.245.051.338.07.023.03h.112c5.211 1.052 12.424 1.732 20.506 1.732 8.081 0 15.294-.68 20.505-1.733h.068l.014-.017.392-.082-.284-.059a27.677 27.677 0 0 0 2.775-4.456c4.964 1.199 7.982 2.781 7.982 4.515 0 .033-.001.066-.004.1-.242 3.7-14.23 6.685-31.448 6.685-17.22 0-31.206-2.985-31.45-6.686a1.494 1.494 0 0 1-.002-.099Z" fill="url(#c)"/><defs><linearGradient id="a" x1="0" y1="23.579" x2="46.871" y2="-18.138" gradientUnits="userSpaceOnUse"><stop stop-color="#FFE7E0"/><stop offset=".109" stop-color="#F8DBF4"/><stop offset=".526" stop-color="#C4DDFF"/><stop offset="1" stop-color="#CAE9FF"/></linearGradient><linearGradient id="b" x1="0" y1="23.579" x2="46.871" y2="-18.138" gradientUnits="userSpaceOnUse"><stop stop-color="#FFE7E0"/><stop offset=".109" stop-color="#F8DBF4"/><stop offset=".526" stop-color="#C4DDFF"/><stop offset="1" stop-color="#CAE9FF"/></linearGradient><linearGradient id="c" x1="0" y1="23.579" x2="46.871" y2="-18.138" gradientUnits="userSpaceOnUse"><stop stop-color="#FFE7E0"/><stop offset=".109" stop-color="#F8DBF4"/><stop offset=".526" stop-color="#C4DDFF"/><stop offset="1" stop-color="#CAE9FF"/></linearGradient></defs></svg>
